assets/images/grafana.svg

<svg width="24" height="24" viewBox="0 0 24 24" fill="none" xmlns="http://www.w3.org/2000/svg">
<path d="M23.9609 10.6236C23.9144 10.2217 23.8459 9.75298 23.7057 9.24081C23.5655 8.72864 23.3364 8.17447 23.0348 7.58057C22.7079 7.00616 22.3174 6.38525 21.7827 5.81159C21.5748 5.57688 21.3457 5.36616 21.1118 5.1322C21.4811 3.78841 20.67 2.61709 20.67 2.61709C19.2605 2.53535 18.3817 3.02353 18.0548 3.23799C18.0084 3.21475 17.9399 3.19525 17.8934 3.17125C17.6643 3.08952 17.4092 3.00328 17.1549 2.91704C16.8997 2.8503 16.6454 2.76857 16.3902 2.72582C16.135 2.65908 15.8595 2.61634 15.5791 2.5736C15.5326 2.5736 15.4853 2.5541 15.4389 2.5541C14.8405 0.76563 13.0781 0 13.0781 0C11.0654 1.19156 10.6708 2.78881 10.6708 2.78881C10.6708 2.78881 10.6708 2.83156 10.6496 2.87505C10.5347 2.89455 10.4418 2.93729 10.3268 2.96129C10.1866 3.00403 10.0252 3.04752 9.88499 3.10976C9.74478 3.172 9.58337 3.2155 9.44316 3.27774C9.14154 3.40672 8.866 3.5357 8.56438 3.68417C8.28803 3.8289 8.01658 3.98488 7.75735 4.15285C7.71088 4.13335 7.68479 4.11011 7.68479 4.11011C4.97592 3.15326 2.56866 4.30133 2.56866 4.30133C2.36079 6.96491 3.6602 8.62515 3.91454 8.92136C3.84199 9.09308 3.79552 9.24156 3.72786 9.41328C3.51999 10.0147 3.3757 10.6356 3.28603 11.2647C3.26483 11.351 3.26483 11.456 3.23956 11.5422C0.742638 12.6708 0 15.0142 0 15.0142C2.08444 17.2286 4.53898 17.3538 4.53898 17.3538C4.84467 17.8652 5.20173 18.3496 5.60443 18.8026C5.76584 18.9938 5.94844 19.1655 6.13512 19.3575C5.37047 21.3574 6.25006 23.0401 6.25006 23.0401C8.58965 23.1264 10.1181 22.1028 10.4409 21.8681L11.133 22.0593C11.8504 22.231 12.5939 22.3368 13.3112 22.36H14.2577C15.3492 23.805 17.2934 24 17.2934 24C18.6564 22.6562 18.7494 21.3559 18.7494 21.059V20.93C19.0298 20.7388 19.3053 20.5475 19.5857 20.3361C20.1376 19.8869 20.6007 19.356 21.0205 18.8011C21.0669 18.7583 21.0881 18.6953 21.1354 18.6526C22.6851 18.7388 23.7717 17.758 23.7717 17.758C23.5166 16.2702 22.5914 15.5436 22.4088 15.4183L22.3623 15.3756L22.3411 15.3524C22.3411 15.2706 22.3623 15.1844 22.3623 15.0749C22.3835 14.9069 22.3835 14.7584 22.3835 14.5867V13.9696C22.3835 13.9268 22.3835 13.8833 22.3623 13.8406L22.3158 13.5864C22.2946 13.4147 22.2482 13.2662 22.2221 13.0945C22.0607 12.4653 21.7974 11.8601 21.4362 11.306C21.071 10.7668 20.6292 10.2824 20.1156 9.85721C19.6192 9.45527 19.0583 9.12307 18.451 8.88086C17.8738 8.63115 17.2535 8.47443 16.6209 8.40844C16.3193 8.36569 15.9965 8.36569 15.6957 8.36569H15.2326C15.0712 8.38894 14.9098 8.40844 14.7696 8.43243C14.1452 8.53817 13.5639 8.75263 13.0544 9.02634C12.545 9.3038 12.108 9.66674 11.7379 10.0694C11.3768 10.4564 11.0923 10.8935 10.9015 11.3697C10.7189 11.8152 10.5999 12.3071 10.5787 12.7525V13.2639C10.5787 13.3262 10.5787 13.3697 10.5999 13.4356C10.6725 14.0918 10.935 14.7164 11.3646 15.2436C11.645 15.5833 11.9417 15.8413 12.2898 16.052C12.6379 16.2665 12.986 16.4149 13.3553 16.5207C13.7286 16.6302 14.0726 16.6691 14.3954 16.6496H14.8837C14.9302 16.6496 14.9726 16.6302 14.9987 16.6302C15.0451 16.6302 15.0663 16.6069 15.1136 16.6069C15.1813 16.5874 15.275 16.5642 15.3427 16.5447C15.4829 16.5019 15.6231 16.4389 15.7633 16.3962C15.8995 16.3294 16.0136 16.2672 16.1073 16.2012C16.1326 16.1817 16.1799 16.1585 16.2011 16.139C16.316 16.0572 16.3372 15.9043 16.2475 15.7993C16.1538 15.7175 16.0185 15.6898 15.8995 15.7325C15.8783 15.7558 15.853 15.7558 15.8106 15.7753C15.7128 15.8225 15.6109 15.857 15.509 15.8848C15.39 15.9043 15.2758 15.947 15.1609 15.9665C15.0932 15.9665 15.046 15.9898 14.9742 15.9898H14.5837C14.5625 15.9898 14.5837 15.9898 14.5837 15.9898H14.49C14.4647 15.9898 14.4223 15.9898 14.3963 15.9665C14.1411 15.9238 13.8656 15.8608 13.6104 15.7558C13.3553 15.6463 13.1009 15.4978 12.893 15.3066C12.6599 15.1154 12.4773 14.9047 12.3159 14.6467C12.1545 14.3925 12.0607 14.1158 12.0143 13.8383C11.989 13.6899 11.9678 13.5414 11.989 13.3929V13.2639C11.989 13.2639 11.989 13.2834 11.989 13.2639V13.1582C11.989 13.072 12.0143 13.0097 12.0355 12.9235C12.1586 12.2636 12.5066 11.6577 13.0333 11.1973C13.1735 11.0683 13.3096 10.9625 13.4751 10.8808C13.6365 10.7713 13.7979 10.6858 13.9593 10.6228C14.1207 10.5598 14.3074 10.4939 14.49 10.4511C14.6767 10.4084 14.8634 10.3694 15.046 10.3694C15.1397 10.3694 15.2326 10.3461 15.3264 10.3461H15.509C15.509 10.3461 15.5343 10.3461 15.509 10.3461H15.6027C16.2223 10.3934 16.8214 10.5606 17.3644 10.8381C18.1029 11.2205 18.7274 11.7949 19.0966 12.4983C19.2833 12.838 19.4235 13.2212 19.4912 13.6269C19.5124 13.7326 19.5124 13.8181 19.5377 13.9238V14.4787C19.5377 14.5845 19.5165 14.6932 19.5165 14.7989C19.4912 14.9047 19.4912 15.0097 19.47 15.1154L19.3974 15.4356C19.3762 15.5413 19.2613 15.842 19.1896 16.0527C19.1219 16.2672 18.7991 16.8416 18.5187 17.1813C17.9578 17.8922 17.207 18.4546 16.3405 18.8221C15.9035 18.9938 15.4617 19.1423 14.9987 19.2045C14.7696 19.2472 14.5397 19.2712 14.3066 19.2712H13.9585C13.9585 19.2712 13.9797 19.2712 13.9585 19.2712H13.9373C13.8224 19.2712 13.6821 19.2712 13.5639 19.248C13.0544 19.2052 12.5702 19.119 12.0819 18.9938C11.5977 18.8648 11.1355 18.6931 10.6937 18.4824C9.81488 18.0452 9.03393 17.4513 8.40542 16.7366C8.1038 16.3737 7.82338 15.9905 7.59431 15.5886C7.36116 15.1821 7.19976 14.7569 7.05954 14.331C6.9283 13.9013 6.84759 13.4604 6.83047 13.0112V12.3513C6.83047 12.1406 6.85167 11.9059 6.89814 11.6719C6.92341 11.4372 6.97069 11.2227 7.01308 10.9888C7.05954 10.7586 7.13209 10.5434 7.19976 10.3094C7.26742 10.0754 7.50138 9.43878 7.70925 9.03234C8.125 8.22396 8.66058 7.49733 9.2842 6.92292C9.4456 6.77444 9.60701 6.64546 9.79369 6.52098C9.86135 6.45424 10.0228 6.32601 10.2094 6.22028C10.392 6.11454 10.5787 6.00956 10.7866 5.92332C10.8803 5.88058 10.9733 5.83709 11.0882 5.79434C11.1347 5.77485 11.182 5.7516 11.2496 5.7321C11.2961 5.71261 11.3434 5.68936 11.411 5.66536C11.6189 5.58363 11.8268 5.51689 12.0355 5.45465C12.0819 5.43515 12.1545 5.43515 12.2009 5.4119C12.2474 5.38866 12.3159 5.39241 12.3624 5.36916C12.4088 5.34591 12.5702 5.32642 12.6852 5.28292C12.7316 5.26343 12.8001 5.26343 12.8466 5.24018C12.893 5.24018 12.9615 5.22068 13.008 5.22068C13.0544 5.22068 13.1229 5.19744 13.1694 5.19744L13.3561 5.15469C13.4025 5.15469 13.471 5.1352 13.5175 5.1352C13.59 5.1352 13.6324 5.1157 13.7042 5.1157C13.7506 5.1157 13.8403 5.09245 13.8868 5.09245C13.9332 5.09245 13.9593 5.09245 14.0017 5.07296H14.1631C14.2357 5.07296 14.2821 5.07296 14.3498 5.05346H14.4435C14.4435 5.05346 14.4647 5.05346 14.4435 5.05346H15.297C15.7128 5.07296 16.1334 5.1157 16.5239 5.17869C17.3008 5.30392 18.0483 5.53414 18.7485 5.86183C19.3983 6.15054 20.0056 6.51423 20.5534 6.94766C20.5746 6.96716 20.621 6.99041 20.6471 7.0294C20.6683 7.05265 20.7148 7.07214 20.736 7.11564C20.8085 7.15838 20.855 7.22137 20.9227 7.26411C20.9903 7.30686 21.0376 7.36985 21.1093 7.41259C21.1558 7.47933 21.2243 7.52207 21.2707 7.58431C21.8862 8.16622 22.4047 8.83437 22.7992 9.56476C22.8204 9.58425 22.8204 9.6075 22.8457 9.65099C22.8669 9.67049 22.8669 9.69374 22.8922 9.73273C22.9134 9.77547 22.9386 9.84221 22.981 9.88496C23.0063 9.9277 23.0275 9.99069 23.0536 10.0334C23.0748 10.0762 23.1 10.1392 23.1212 10.1819C23.215 10.3731 23.2826 10.5643 23.3544 10.7563C23.4693 11.0533 23.537 11.3112 23.6095 11.5219C23.6348 11.6119 23.7196 11.6704 23.8174 11.6742C23.9323 11.6742 24 11.5879 24 11.4792C23.9788 11.225 23.9788 10.9483 23.9535 10.6281L23.9609 10.6236Z" fill="#626262"/>
</svg>

<svg width="24" height="24" viewBox="0 0 24 24" fill="none" xmlns="http://www.w3.org/2000/svg"><path d="M23.96 10.624a9.11 9.11 0 0 0-.254-1.383c-.14-.512-.37-1.067-.671-1.66-.327-.575-.718-1.196-1.252-1.77-.208-.234-.437-.445-.671-.679.37-1.344-.442-2.515-.442-2.515-1.41-.082-2.288.407-2.615.621-.047-.023-.115-.043-.162-.067a59.545 59.545 0 0 0-.738-.254c-.255-.067-.51-.148-.765-.191a8.042 8.042 0 0 0-.81-.152c-.047 0-.095-.02-.141-.02C14.84.766 13.079 0 13.079 0c-2.014 1.192-2.408 2.789-2.408 2.789s0 .043-.021.086c-.115.02-.208.062-.323.086-.14.043-.302.087-.442.149s-.302.106-.442.168a18.57 18.57 0 0 0-.879.406c-.276.145-.547.3-.807.469a.295.295 0 0 1-.072-.043c-2.71-.957-5.116.191-5.116.191-.208 2.664 1.091 4.324 1.346 4.62-.073.172-.12.32-.187.492a9.97 9.97 0 0 0-.442 1.852c-.021.086-.021.191-.046.277C.743 12.671 0 15.014 0 15.014c2.084 2.215 4.539 2.34 4.539 2.34a9.67 9.67 0 0 0 1.065 1.449c.162.19.344.363.531.555-.765 2 .115 3.682.115 3.682 2.34.086 3.868-.937 4.19-1.172l.693.191c.717.172 1.46.278 2.178.301h.947c1.091 1.445 3.035 1.64 3.035 1.64 1.363-1.344 1.456-2.644 1.456-2.941v-.129c.28-.191.556-.383.837-.594.552-.45 1.015-.98 1.434-1.535.047-.043.068-.106.115-.148 1.55.086 2.637-.895 2.637-.895-.255-1.488-1.18-2.214-1.363-2.34l-.047-.042-.02-.024c0-.081.02-.168.02-.277.022-.168.022-.317.022-.488v-.617c0-.043 0-.087-.022-.13l-.046-.254c-.021-.171-.068-.32-.094-.492a6.009 6.009 0 0 0-.786-1.788 6.904 6.904 0 0 0-1.32-1.449 6.439 6.439 0 0 0-1.665-.976 6.247 6.247 0 0 0-1.83-.473c-.302-.042-.624-.042-.925-.042h-.463c-.162.023-.323.042-.463.066a5.628 5.628 0 0 0-1.716.594c-.509.278-.946.64-1.316 1.043a4.197 4.197 0 0 0-.836 1.3 4.305 4.305 0 0 0-.323 1.383v.512c0 .062 0 .106.02.172a3.46 3.46 0 0 0 .766 1.808c.28.34.577.597.925.808a4.2 4.2 0 0 0 1.065.469c.374.11.718.148 1.04.129h.489c.046 0 .089-.02.115-.02.046 0 .067-.023.115-.023.067-.02.161-.043.229-.062.14-.043.28-.106.42-.149.136-.067.25-.129.344-.195.026-.02.073-.043.094-.062a.229.229 0 0 0 .046-.34.353.353 0 0 0-.348-.066c-.02.023-.046.023-.088.042-.098.047-.2.082-.302.11-.119.02-.233.062-.348.082-.068 0-.115.023-.187.023h-.39c-.021 0 0 0 0 0h-.094c-.025 0-.068 0-.094-.024a3.678 3.678 0 0 1-.786-.21 2.55 2.55 0 0 1-.717-.45 2.634 2.634 0 0 1-.577-.66 2.163 2.163 0 0 1-.302-.808c-.025-.148-.046-.297-.025-.445v-.13s0 .02 0 0v-.105c0-.086.025-.148.046-.234.124-.66.472-1.266.998-1.727a1.86 1.86 0 0 1 .442-.316 2.45 2.45 0 0 1 .484-.258 3.93 3.93 0 0 1 .531-.172c.187-.043.373-.082.556-.082.094 0 .187-.023.28-.023h.183s.025 0 0 0h.094c.62.047 1.218.215 1.761.492.739.383 1.363.957 1.733 1.66.186.34.326.723.394 1.129.021.106.021.191.047.297v.555c0 .106-.021.214-.021.32-.026.106-.026.21-.047.316l-.073.32c-.02.106-.136.407-.207.618-.068.214-.39.789-.671 1.128a5.496 5.496 0 0 1-2.178 1.641c-.438.172-.88.32-1.342.383-.23.042-.46.066-.692.066h-.348s.02 0 0 0h-.022c-.115 0-.255 0-.373-.023a8.903 8.903 0 0 1-1.482-.254 8.006 8.006 0 0 1-1.388-.512 7.483 7.483 0 0 1-2.289-1.745 8.07 8.07 0 0 1-.81-1.148 6.702 6.702 0 0 1-.535-1.258 5.188 5.188 0 0 1-.23-1.32v-.66c0-.21.022-.445.068-.68.025-.234.073-.448.115-.682.047-.23.12-.446.187-.68.067-.234.301-.87.51-1.277a7.59 7.59 0 0 1 1.574-2.11c.162-.148.323-.277.51-.401a2.24 2.24 0 0 1 .415-.3c.183-.106.37-.211.578-.298.093-.042.186-.086.301-.129.047-.02.094-.042.162-.062.046-.02.093-.043.161-.067a7.91 7.91 0 0 1 .625-.21c.046-.02.119-.02.165-.043.046-.023.115-.02.161-.043.047-.023.208-.043.323-.086.047-.02.115-.02.162-.043.046 0 .114-.02.161-.02.046 0 .115-.023.161-.023l.187-.042c.046 0 .115-.02.162-.02.072 0 .114-.02.186-.02.047 0 .136-.023.183-.023.046 0 .072 0 .115-.019h.161c.073 0 .12 0 .187-.02h.094s.02 0 0 0h.853c.416.02.836.063 1.227.126a8.395 8.395 0 0 1 2.224.683c.65.289 1.258.652 1.805 1.086.022.02.068.042.094.081.021.024.068.043.089.087.072.042.119.105.187.148.067.043.115.106.186.149.047.066.115.11.162.171a7.902 7.902 0 0 1 1.528 1.98c.021.02.021.043.047.087.02.02.02.043.046.082.021.042.047.11.089.152.025.043.046.106.073.148.02.043.046.106.067.149.094.191.162.382.233.574.115.297.183.555.256.766.025.09.11.148.207.152.115 0 .183-.086.183-.195-.021-.254-.021-.53-.047-.85l.008-.005Z" fill="#626262"/></svg>
